X:1
T:Glory of the North
T:John Playford (1623 - 1686) Arr. Marieh 
T:"Musick's Delight on the Cithren" (1666), No.16
C:John Playford (1623 - 1686)
%%score { ( 1 2 ) 3 }
L:1/8
M:2/2
K:A
V:1 treble-8 nm="Bouzouki (4 chœurs)"
V:2 treble-8 
V:3 treble-8 nm="Guitare classique"
V:1
"A" a2 a2 b2 c'2 |"A" bc'ab"E" g2 e2 |"A" cdec"D" fedc |"E" B3 A"A" A4 ::"A" a2 ec a2 ec | %5
"A" a2 ec"E" B3 B |"A" cdec"D" fedc |"E" B3 A"A" A4!D.C.! :| %8
V:2
 A,4 A,4 | A,4 E,4 | A,4 D4 | E,4 A,4 :: A,4 A,4 | A,4 E,4 | A,4 D4 | E,4 A,4 :| %8
V:3
"A" !arpeggio![A,EAce]4 !arpeggio![A,EAce]4 |"A" !arpeggio![A,EAce]4"E" !arpeggio![E,B,EGBe]4 | %2
"A" !arpeggio![A,EAce]4"D" !arpeggio![DAdf]4 |"E" !arpeggio![E,B,EGBe]4"A" !arpeggio![A,EAce]4 :: %4
"A" !arpeggio![A,EAce]4 !arpeggio![A,EAce]4 |"A" !arpeggio![A,EAce]4"E" !arpeggio![E,B,EGBe]4 | %6
"A" !arpeggio![A,EAce]4"D" !arpeggio![DAdf]4 |"E" !arpeggio![E,B,EGBe]4"A" !arpeggio![A,EAce]4 :| %8

